packages/web-icons/svgs/exclamation_2.svg

<svg viewBox="0 0 54 48" xmlns="http://www.w3.org/2000/svg" class="ridi_icon"><path d="M52.5 42.6L30.2 1.8C29.6.7 28.4 0 27.2 0c-1.3 0-2.5.7-3.1 1.8l-22.9 41c-.6 1.1-.6 2.4 0 3.4.7 1 1.7 1.7 3 1.7l45.5.1c1.9 0 3.5-1.5 3.5-3.4 0-.8-.3-1.5-.7-2zM27 31.1c-1 0-2-1-2.1-2-.9-4.5-1.3-9.3-1.7-13.3-.1-.9.7-1.9 1.7-2.1 1.8-.3 2.8-.3 4.6 0 1 .2 1.7 1.2 1.6 2.1-.5 4-.9 8.8-1.8 13.3-.2 1.1-1.2 2-2.2 2H27zm0 12.2c-2.2 0-3.9-1.7-3.9-3.9 0-2.1 1.8-3.8 3.9-3.8 2.2 0 3.9 1.7 3.9 3.9 0 2.1-1.7 3.8-3.9 3.8z"/></svg>

<?xml version="1.0" encoding="UTF-8"?>
<svg width="54px" height="48px" viewBox="0 0 54 48" version="1.1" xmlns="http://www.w3.org/2000/svg">
  <!-- Generator: Sketch 41.2 (35397) - http://www.bohemiancoding.com/sketch -->
  <title>exclamation_2</title>
  <desc>Created with Sketch.</desc>
  <defs></defs>
  <g id="Page-1" stroke="none" stroke-width="1" fill="none" fill-rule="evenodd">
    <g id="exclamation_2" fill="#444444">
      <g id="레이어_1">
        <path d="M52.5,42.6 L30.2,1.8 C29.6,0.7 28.4,0 27.2,0 C25.9,0 24.7,0.7 24.1,1.8 L1.2,42.8 C0.6,43.9 0.6,45.2 1.2,46.2 C1.9,47.2 2.9,47.9 4.2,47.9 L49.7,48 C51.6,48 53.2,46.5 53.2,44.6 C53.2,43.8 52.9,43.1 52.5,42.6 L52.5,42.6 Z M27,31.1 C26,31.1 25,30.1 24.9,29.1 C24,24.6 23.6,19.8 23.2,15.8 C23.1,14.9 23.9,13.9 24.9,13.7 C26.7,13.4 27.7,13.4 29.5,13.7 C30.5,13.9 31.2,14.9 31.1,15.8 C30.6,19.8 30.2,24.6 29.3,29.1 C29.1,30.2 28.1,31.1 27.1,31.1 L27,31.1 L27,31.1 Z M27,43.3 C24.8,43.3 23.1,41.6 23.1,39.4 C23.1,37.3 24.9,35.6 27,35.6 C29.2,35.6 30.9,37.3 30.9,39.5 C30.9,41.6 29.2,43.3 27,43.3 Z" id="Shape"></path>
      </g>
    </g>
  </g>
</svg>
